deepin/status/network-mobile-unknown-online-symbolic.svg

<?xml version="1.0" encoding="UTF-8" standalone="no"?>
<svg width="16px" height="16px" viewBox="0 0 16 16" version="1.1" xmlns="http://www.w3.org/2000/svg" xmlns:xlink="http://www.w3.org/1999/xlink">
    <!-- Generator: Sketch 39.1 (31720) - http://www.bohemiancoding.com/sketch -->
    <title>network-mobile-unknown-on</title>
    <desc>Created with Sketch.</desc>
    <defs></defs>
    <g id="Page-1" stroke="none" stroke-width="1" fill="none" fill-rule="evenodd">
        <g id="network-mobile-unknown-on">
            <g id="Group-59">
                <polygon id="Fill-375" points="0 16 16 16 16 0 0 0"></polygon>
                <path d="M7.8354,12.0072 C7.6114,12.0072 7.4304,12.0852 7.2644,12.2522 C7.0954,12.4242 7.0174,12.6182 7.0174,12.8612 C7.0174,13.1172 7.0964,13.3192 7.2654,13.4942 C7.4324,13.6662 7.6194,13.7452 7.8494,13.7452 C8.0924,13.7452 8.2864,13.6652 8.4574,13.4912 C8.6314,13.3172 8.7114,13.1162 8.7114,12.8612 C8.7114,12.6182 8.6314,12.4252 8.4594,12.2552 C8.2894,12.0862 8.0904,12.0072 7.8354,12.0072" id="Fill-376" fill="#FFFFFF"></path>
                <path d="M10.5082,4.2867 C10.2602,3.8637 9.9262,3.5377 9.5142,3.3167 C9.0962,3.0927 8.5742,2.9797 7.9632,2.9797 C7.0092,2.9797 6.2412,3.2587 5.6792,3.8097 C5.2662,4.2077 5.0052,4.6647 4.8902,5.1967 C4.8702,5.2897 4.8422,5.4827 5.1232,5.4827 L5.6862,5.4827 C5.9512,5.4827 5.9742,5.3227 6.0012,5.2467 C6.0952,4.9787 6.2512,4.7447 6.4652,4.5447 C6.8372,4.2007 7.3072,4.0267 7.8612,4.0267 C8.4002,4.0267 8.8472,4.1727 9.1892,4.4587 C9.5552,4.7637 9.7422,5.1447 9.7422,5.5917 C9.7422,5.9177 9.6672,6.2057 9.5172,6.4507 C9.3832,6.6667 9.0592,7.0007 8.5002,7.5017 C8.0162,7.9487 7.6602,8.4267 7.4422,8.9237 C7.2352,9.3957 7.1252,9.9287 7.1152,10.5087 C7.1152,10.5087 7.0132,10.9657 7.4822,10.9657 L7.9362,10.9657 C8.1342,10.9657 8.2482,10.8227 8.2652,10.6057 C8.2842,10.3617 8.3252,10.0237 8.4112,9.6857 C8.4902,9.3777 8.6012,9.1177 8.7312,8.9127 C8.8632,8.7067 9.1382,8.4087 9.5992,7.9727 C10.1152,7.4957 10.3062,7.2657 10.3782,7.1527 C10.5592,6.8877 10.6902,6.6317 10.7682,6.3917 C10.8452,6.1477 10.8842,5.8987 10.8842,5.6497 C10.8842,5.1707 10.7582,4.7127 10.5082,4.2867" id="Fill-377" fill="#FFFFFF"></path>
                <path d="M2.5872,12.0492 C2.4412,12.0492 2.2952,11.9852 2.1962,11.8622 C1.4042,10.8702 0.9862,9.6902 0.9862,8.4472 C0.9862,7.2162 1.3992,6.0442 2.1772,5.0592 C2.3492,4.8402 2.6632,4.8062 2.8792,4.9762 C3.0962,5.1482 3.1332,5.4622 2.9622,5.6782 C2.3232,6.4862 1.9862,7.4442 1.9862,8.4472 C1.9862,9.4612 2.3292,10.4252 2.9782,11.2372 C3.1502,11.4522 3.1152,11.7672 2.8992,11.9402 C2.8072,12.0132 2.6962,12.0492 2.5872,12.0492" id="Fill-378" fill="#FFFFFF"></path>
                <path d="M4.1966,10.5297 C4.0736,10.5297 3.9506,10.4847 3.8536,10.3937 C3.3046,9.8777 3.0036,9.1907 3.0036,8.4597 C3.0036,7.7267 3.3056,7.0397 3.8546,6.5247 C4.0536,6.3357 4.3736,6.3437 4.5606,6.5477 C4.7506,6.7487 4.7406,7.0647 4.5386,7.2537 C4.1936,7.5777 4.0036,8.0067 4.0036,8.4597 C4.0036,8.9127 4.1936,9.3407 4.5396,9.6657 C4.7406,9.8547 4.7506,10.1717 4.5606,10.3727 C4.4626,10.4767 4.3296,10.5297 4.1966,10.5297" id="Fill-379" fill="#FFFFFF"></path>
                <path d="M13.4095,12.0492 C13.3005,12.0492 13.1895,12.0132 13.0975,11.9402 C12.8815,11.7672 12.8465,11.4522 13.0185,11.2372 C13.6675,10.4252 14.0105,9.4612 14.0105,8.4472 C14.0105,7.4442 13.6735,6.4862 13.0345,5.6782 C12.8635,5.4622 12.9005,5.1482 13.1175,4.9762 C13.3335,4.8062 13.6475,4.8402 13.8195,5.0592 C14.5975,6.0442 15.0105,7.2162 15.0105,8.4472 C15.0105,9.6902 14.5925,10.8702 13.8005,11.8622 C13.7015,11.9852 13.5555,12.0492 13.4095,12.0492" id="Fill-380" fill="#FFFFFF"></path>
                <path d="M11.8001,10.5297 C11.6671,10.5297 11.5341,10.4767 11.4361,10.3727 C11.2461,10.1717 11.2561,9.8547 11.4571,9.6657 C11.8021,9.3417 11.9921,8.9127 11.9921,8.4597 C11.9921,8.0057 11.8031,7.5777 11.4581,7.2537 C11.2561,7.0647 11.2461,6.7487 11.4361,6.5477 C11.6231,6.3437 11.9431,6.3357 12.1421,6.5247 C12.6911,7.0387 12.9921,7.7257 12.9921,8.4597 C12.9921,9.1917 12.6911,9.8787 12.1431,10.3937 C12.0461,10.4847 11.9231,10.5297 11.8001,10.5297" id="Fill-381" fill="#FFFFFF"></path>
            </g>
        </g>
    </g>
</svg>

<?xml version="1.0" encoding="iso-8859-1"?>
<!-- Generator: Adobe Illustrator 18.0.0, SVG Export Plug-In . SVG Version: 6.00 Build 0)  -->
<!DOCTYPE svg PUBLIC "-//W3C//DTD SVG 1.1//EN" "http://www.w3.org/Graphics/SVG/1.1/DTD/svg11.dtd">
<svg version="1.1" id="&#x56FE;&#x5C42;_1" xmlns="http://www.w3.org/2000/svg" xmlns:xlink="http://www.w3.org/1999/xlink" x="0px"
	 y="0px" viewBox="0 0 16 16" style="enable-background:new 0 0 16 16;" xml:space="preserve">
<g>
	<g>
		<g>
			<path style="fill:#FFFFFF;" d="M7.837,12.024c-0.224,0-0.405,0.078-0.571,0.245c-0.169,0.172-0.247,0.365-0.247,0.609
				c0,0.256,0.079,0.458,0.248,0.633c0.167,0.172,0.354,0.251,0.585,0.251c0.243,0,0.437-0.08,0.608-0.254
				c0.173-0.174,0.253-0.375,0.253-0.63c0-0.243-0.08-0.436-0.251-0.606C8.291,12.103,8.092,12.024,7.837,12.024z"/>
		</g>
		<g>
			<path style="fill:#FFFFFF;" d="M10.51,4.303c-0.248-0.423-0.582-0.749-0.994-0.97C9.098,3.11,8.576,2.997,7.965,2.997
				c-0.954,0-1.722,0.279-2.284,0.829C5.267,4.225,5.007,4.681,4.892,5.213c-0.02,0.093-0.048,0.286,0.233,0.286
				c0.155,0,0.386,0,0.562,0c0.266,0,0.288-0.16,0.315-0.235c0.094-0.268,0.25-0.503,0.464-0.702
				c0.372-0.344,0.842-0.518,1.397-0.518c0.538,0,0.985,0.146,1.328,0.432c0.366,0.305,0.553,0.686,0.553,1.133
				c0,0.327-0.075,0.615-0.225,0.859C9.385,6.683,9.061,7.018,8.502,7.518C8.018,7.965,7.662,8.444,7.444,8.94
				c-0.207,0.472-0.317,1.006-0.327,1.585c0,0-0.102,0.457,0.367,0.457c0.179,0,0.332,0,0.454,0c0.198,0,0.312-0.142,0.329-0.359
				c0.019-0.244,0.06-0.582,0.146-0.92c0.079-0.309,0.19-0.568,0.32-0.773C8.865,8.723,9.14,8.425,9.601,7.99
				c0.516-0.477,0.707-0.707,0.778-0.82c0.182-0.265,0.313-0.521,0.391-0.761c0.077-0.243,0.116-0.493,0.116-0.742
				C10.886,5.188,10.76,4.73,10.51,4.303z"/>
		</g>
	</g>
</g>
<g>
	<g>
		<path style="fill:#FFFFFF;" d="M2.589,12.066c-0.146,0-0.292-0.064-0.391-0.188c-0.792-0.991-1.21-2.172-1.21-3.414
			c0-1.231,0.412-2.403,1.19-3.389c0.172-0.219,0.486-0.253,0.702-0.083c0.217,0.172,0.254,0.486,0.083,0.702
			C2.325,6.502,1.988,7.46,1.988,8.464c0,1.014,0.343,1.978,0.991,2.789c0.173,0.216,0.138,0.53-0.078,0.703
			C2.809,12.03,2.698,12.066,2.589,12.066z"/>
	</g>
	<g>
		<path style="fill:#FFFFFF;" d="M4.198,10.546c-0.123,0-0.246-0.045-0.343-0.136C3.307,9.894,3.005,9.208,3.005,8.476
			c0-0.732,0.303-1.42,0.852-1.935c0.199-0.189,0.519-0.181,0.706,0.022C4.752,6.765,4.742,7.082,4.54,7.27
			C4.195,7.594,4.005,8.023,4.005,8.476s0.19,0.881,0.536,1.206c0.201,0.189,0.211,0.506,0.021,0.707
			C4.464,10.494,4.331,10.546,4.198,10.546z"/>
	</g>
</g>
<g>
	<g>
		<path style="fill:#FFFFFF;" d="M13.411,12.066c-0.109,0-0.22-0.036-0.313-0.109c-0.216-0.173-0.251-0.487-0.078-0.703
			c0.648-0.812,0.991-1.775,0.991-2.789c0-1.004-0.337-1.962-0.976-2.77c-0.171-0.216-0.134-0.53,0.083-0.702
			c0.216-0.17,0.53-0.136,0.702,0.083c0.778,0.985,1.19,2.157,1.19,3.389c0,1.242-0.418,2.423-1.21,3.414
			C13.703,12.001,13.558,12.066,13.411,12.066z"/>
	</g>
	<g>
		<path style="fill:#FFFFFF;" d="M11.802,10.546c-0.133,0-0.266-0.053-0.364-0.157c-0.189-0.201-0.18-0.518,0.021-0.707
			c0.345-0.324,0.535-0.753,0.535-1.206c0-0.454-0.189-0.882-0.534-1.206c-0.202-0.188-0.212-0.505-0.022-0.706
			c0.188-0.203,0.507-0.212,0.706-0.022c0.549,0.514,0.851,1.201,0.851,1.935c0,0.732-0.302,1.419-0.85,1.935
			C12.048,10.501,11.925,10.546,11.802,10.546z"/>
	</g>
</g>
</svg>
